X:1
T:Thou Thinkest, Lord, of Me
T:Thou Thinkest, Lord, of Me
T:Edmund Simon Lorenz
T:Edmund Simon Lorenz, 1885
T:Public Domain Courtesy of the Cyber Hymnal™
C:Edmund Simon Lorenz
Z:Public Domain
Z:Courtesy of the Cyber Hymnal™
%%score ( 1 2 ) ( 3 4 )
L:1/8
Q:1/4=95
M:4/4
K:G
V:1 treble 
V:2 treble 
V:3 bass 
V:4 bass 
V:1
 [B,D]2 | [B,D][DB] [DB]2 (GA) | [CG][CF] [DF]2 [CD]2 | [CD][Dc] [Dc]2 ([CA][DB]) | %4
w: 1.~A-|mid the tri- als *|which I meet, A-|mid the thorns that *|
w: 2.~The|cares of life come *|throng- ing fast, Up-|on my soul their *|
w: 3.~Let|sha- dows come, let *|sha- dows go, Let|life be bright or *|
 [CA][B,G] [B,G]2 [Gd]2 | [Gd][GB] [GB]2 ([FA][=FB]) | [EA][EG] [EG]2 [EA]2 | %7
w: pierce my feet, One|thought re- mains su- *|preme- ly sweet, Thou|
w: sha- dows cast; Their|gloom re- minds my *|heart at last, Thou|
w: dark with woe; I|am con- tent, for *|this I know, Thou|
 [DB][B,D] [DB]2 [CA]2 | [B,G]4 ||"^Refrain" [Gd]2 | [Gd][GB] [Gd]2 [Ge]2 | [FA]4 [Fc]2 | %12
w: think- est, Lord, of|me!||||
w: think- est, Lord, of|me!|Thou|think- est, Lord, of|me; Thou|
w: think- est, Lord, of|me!||||
 [Ac][FA] [Ac]2 [Fd]2 | [GB]4 [Gd]2 | [Gd][GB] [GB]2 ([FA][=FB]) | [EA][EG] [EG]2 [EA]2 | %16
w: ||||
w: think- est, Lord, of|me; What|need I fear, since *|Thou art near, And|
w: ||||
 [DB][B,D] [DB]2 [CA]2 | [B,G]4 |] %18
w: ||
w: think- est, Lord, of|me!|
w: ||
V:2
 x2 | x4 B,2 | x6 | x6 | x6 | x6 | x6 | x6 | x4 || x2 | x6 | x6 | x6 | x6 | x6 | x6 | x6 | x4 |] %18
V:3
 G,2 | G,G, G,2 G,2 | [D,A,][D,A,] [D,A,]2 [D,F,]2 | [D,F,][D,A,] [D,A,]2 [D,F,]2 | %4
 G,G, G,2 [G,B,]2 | [G,B,][G,D] [G,D]2 (CB,) | [C,C][C,C] [C,C]2 [C,G,]2 | %7
 [D,G,][D,G,] [D,F,]2 [D,F,]2 | [G,,G,]4 || [G,B,]2 | [G,B,][G,D] [G,B,]2 [C,C]2 | %11
 [D,C][D,C] [D,C]2 [D,A,]2 | [D,A,][D,D] [D,D]2 [D,D]2 | [G,D][G,D] [G,D]2 [G,B,]2 | %14
 [G,B,][G,D] [G,D]2 (CB,) | [C,C][C,C] [C,C]2 [C,G,]2 | [D,G,][D,G,] [D,F,]2 [D,F,]2 | [G,,G,]4 |] %18
V:4
 G,2 | G,G, G,2 G,2 | x6 | x6 | G,G, G,2 x2 | x4 G,2 | x6 | x6 | x4 || x2 | x6 | x6 | x6 | x6 | %14
 x4 G,2 | x6 | x6 | x4 |] %18

